X:341
T:Prussian
S:Bruce & Emmett's Drummers and Fifers Guide (1862), p. 34
M:2/4
L:1/16
Q:Allegro
K:D
%%MIDI program 72
%%MIDI transpose 8
%%MIDI ratio 3 1
G2|B3c d2zg|e>dA>F G>FE>D|B3c d2zg|e>cA>F G2z G|B3c d2zg|e>cA>F G>FE>D|
B3c d2zg|e>cA>F G2 Lg2|B>GA>F G2 Lg2|B>GA>F G2 Lg2|B>GA>F G2 Lg2|f>ga>f g2:||
